public/images/logo/chartjs.svg

<svg width="60" height="60" viewBox="0 0 60 60" fill="none" xmlns="http://www.w3.org/2000/svg">
<rect x="0.5" y="0.5" width="59" height="59" rx="15.5" fill="white"/>
<path d="M47.8479 30.1105C41.7228 30.2307 42.9985 34.1082 38.6818 35.0888C34.2967 36.085 33.6044 24.3789 29.2204 24.3789C24.8358 24.3789 23.8645 35.7501 18.3744 43.5565L18.2178 43.7775L29.9885 50.5721L47.8479 40.262V30.1105Z" fill="#36A2EB"/>
<path d="M47.8478 29.7584C45.7973 27.1269 44.4065 24.1016 41.4143 24.1016C36.1192 24.1016 37.5125 32.7396 31.6604 32.7396C25.8078 32.7396 25.1925 23.4482 18.5625 32.1824C16.4498 34.9653 14.7493 38.0684 13.4136 41.0047L29.9884 50.5733L47.8478 40.2632V29.7584Z" fill="#FFCE56"/>
<path opacity="0.8" d="M12.1284 33.333C14.1378 27.7685 15.005 23.2617 18.8412 23.2617C24.6932 23.2617 26.0862 39.7024 31.1031 38.0298C36.1192 36.358 35.5617 27.441 43.3651 27.441C44.8504 27.441 46.3668 28.3509 47.848 29.8228V40.2593L29.9886 50.5694L12.1287 40.2593V33.333H12.1284Z" fill="#FE6184"/>
<path d="M29.9744 51.864L11 40.911V19.0041L29.9744 8.05078L48.9489 19.0041V40.9107L29.9744 51.864ZM13.2293 39.624L29.9744 49.2906L46.7196 39.624V20.2911L29.9744 10.6245L13.2293 20.2911V39.624Z" fill="#E7E9ED"/>
<rect x="0.5" y="0.5" width="59" height="59" rx="15.5" stroke="#DADADA"/>
</svg>

<svg width="60" height="60" fill="none" xmlns="http://www.w3.org/2000/svg"><rect x=".5" y=".5" width="59" height="59" rx="15.5" fill="#fff"/><path d="M47.848 30.11c-6.125.12-4.85 3.998-9.166 4.979-4.385.996-5.078-10.71-9.462-10.71-4.384 0-5.355 11.371-10.846 19.177l-.156.222 11.77 6.794 17.86-10.31V30.11z" fill="#36A2EB"/><path d="M47.848 29.758c-2.05-2.631-3.441-5.656-6.434-5.656-5.295 0-3.901 8.638-9.754 8.638-5.852 0-6.468-9.292-13.098-.558-2.112 2.783-3.813 5.886-5.148 8.823l16.574 9.568 17.86-10.31V29.758z" fill="#FFCE56"/><path opacity=".8" d="M12.128 33.333c2.01-5.564 2.877-10.071 6.713-10.071 5.852 0 7.245 16.44 12.262 14.768 5.016-1.672 4.459-10.589 12.262-10.589 1.485 0 3.002.91 4.483 2.382v10.436l-17.86 10.31-17.86-10.31v-6.926z" fill="#FE6184"/><path d="M29.974 51.864L11 40.911V19.004L29.974 8.051 48.95 19.004v21.907L29.974 51.864zM13.23 39.624l16.745 9.667 16.746-9.667V20.291l-16.746-9.667-16.745 9.667v19.333z" fill="#E7E9ED"/><rect x=".5" y=".5" width="59" height="59" rx="15.5" stroke="#DADADA"/></svg>
